X:280
T:I Place My Trust In God
%%stretchlast false
M:2/2
L:1/4
K:G clef=C1
"^I"[G,,G,B,D] "^IV²"[G,,G,CE] "^V7"[D,A,CF] "^I"[G,,B,DG] | [G,,B,DG] [G,,B,DG]3/2 "^IV²"[G,,G,CE]/ "^I"[G,,G,B,D] | "^I¹"[B,,G,D]/ "^ii"[A,,E,CE]/ "^I"[G,,D,B,G] [G,,D,B,G] [G,,G,DB] | [G,,G,DB] [G,,B,DG]3/2 "^IV²"[G,,G,CE]/ "^I"[G,,G,B,D] | "^I¹"[B,,G,D] "^ii"[A,,E,CE] [A,,E,CE] [A,,E,CE] | "^I²"[D,G,DB] "^I"[G,,D,B,G]3/2 [G,,D,B,G]/ [G,,D,B,G] | [G,,G,B,D] "^IV"[C,G,CE] [C,G,CE] "^vii°¹"[A,,A,CF] | [A,,A,CF] [D,A,CA]3/2 "^ii"[A,,E,CA]/ "^I"[G,,D,B,G] | "^I¹"[B,,G,D]/ "^v"[A,,A,DE]/ "^I"[G,,B,DG] [G,,B,DG] [G,,B,DG] | [G,,B,DB] [G,,B,DG]3/2 "^IV²"[G,,G,CE]/ "^I"[G,,G,B,D] | "^I¹"[B,,G,D]/ "^ii"[A,,E,CE]/ "^I"[G,,D,B,G] [G,,D,B,G] [G,,G,DB] | [G,,G,DB] "^V"[D,F,DA]3/2 "^I²"[D,G,DB]/ "^V"[D,F,DA] | "^I¹"[B,,G,DB]/ "^ii"[A,,A,CA]/ "^I"[G,,B,DG] [G,,B,DG] [G,,B,DG] | "^v"[D,A,DA] "^ii¹"[C,A,EA]3/2 "^I¹"[B,,G,DB]/ "^ii"[A,,A,Ec] | "^IV"[C,G,Ec] "^I"[G,,G,DB] [G,,G,DB] [G,,G,DB] | [G,,G,B,G] "^vii°¹"[A,,F,CA] "^V7"[D,F,CF] "^I"[G,,D,B,G] |]
